icons/comment-discussion-16.svg

<svg xmlns="http://www.w3.org/2000/svg" width="16" height="16" viewBox="0 0 16 16"><path d="M1.75 1h8.5c.966 0 1.75.784 1.75 1.75v5.5A1.75 1.75 0 0110.25 10H7.061l-2.574 2.573A1.458 1.458 0 012 11.543V10h-.25A1.75 1.75 0 010 8.25v-5.5C0 1.784.784 1 1.75 1zM1.5 2.75v5.5c0 .138.112.25.25.25h1a.75.75 0 01.75.75v2.19l2.72-2.72a.749.749 0 01.53-.22h3.5a.25.25 0 00.25-.25v-5.5a.25.25 0 00-.25-.25h-8.5a.25.25 0 00-.25.25zm13 2a.25.25 0 00-.25-.25h-.5a.75.75 0 010-1.5h.5c.966 0 1.75.784 1.75 1.75v5.5A1.75 1.75 0 0114.25 12H14v1.543a1.458 1.458 0 01-2.487 1.03L9.22 12.28a.749.749 0 01.326-1.275.749.749 0 01.734.215l2.22 2.22v-2.19a.75.75 0 01.75-.75h1a.25.25 0 00.25-.25z"/></svg>

<svg xmlns="http://www.w3.org/2000/svg" width="16" height="16" viewBox="0 0 16 16">
  <defs/>
  <path d="M1.75,1 L10.25,1 C11.216,1 12,1.784 12,2.75 L12,8.25 C12,9.216 11.216,10 10.25,10 L7.061,10 L4.487,12.573 C4.07,12.989 3.444,13.114 2.899,12.889 C2.355,12.663 2,12.132 2,11.543 L2,10 L1.75,10 C0.784,10 0,9.216 0,8.25 L0,2.75 C0,1.784 0.784,1 1.75,1 Z M1.5,2.75 L1.5,8.25 C1.5,8.388 1.612,8.5 1.75,8.5 L2.75,8.5 C3.164,8.5 3.5,8.836 3.5,9.25 L3.5,11.44 L6.22,8.72 C6.361,8.579 6.551,8.5 6.75,8.5 L10.25,8.5 C10.388,8.5 10.5,8.388 10.5,8.25 L10.5,2.75 C10.5,2.612 10.388,2.5 10.25,2.5 L1.75,2.5 C1.612,2.5 1.5,2.612 1.5,2.75 Z M14.5,4.75 C14.5,4.612 14.388,4.5 14.25,4.5 L13.75,4.5 C13.336,4.5 13,4.164 13,3.75 C13,3.336 13.336,3 13.75,3 L14.25,3 C15.216,3 16,3.784 16,4.75 L16,10.25 C16,11.216 15.216,12 14.25,12 L14,12 L14,13.543 C14,14.132 13.645,14.663 13.101,14.889 C12.556,15.114 11.93,14.989 11.513,14.573 L9.22,12.28 C9.019,12.093 8.937,11.811 9.005,11.546 C9.072,11.28 9.28,11.072 9.546,11.005 C9.811,10.937 10.093,11.019 10.28,11.22 L12.5,13.44 L12.5,11.25 C12.5,10.836 12.836,10.5 13.25,10.5 L14.25,10.5 C14.388,10.5 14.5,10.388 14.5,10.25 Z"/>
</svg>
